src/pos-icons/debian.svg

<svg height="24" viewBox="0 0 24 24" width="24" xmlns="http://www.w3.org/2000/svg"><path d="m18.5 10.57-.2.37c.26-.78.11-1.63.15-2.37l-.07-.02c-.07-1.85-1.67-3.82-3.09-4.48-1.23-.57-3.12-.67-3.99-.24.12-.11.6-.15.45-.23-1.37.13-1.06.47-2.11.74-.29.28.86-.22.23.16-.56.13-.82-.12-1.65.74.07.12.53-.35.15.12-.79-.09-2.48 1.8-2.84 2.42l.19.04c-.31.77-.72 1.26-.77 1.72-.08 1.14-.45 3.21.08 3.85l-.06.53.23.45-.12.01c.58 1.83.62.04 1.39 1.94-.11-.04-.23-.08-.39-.32-.02.19.24.69.54 1.08l-.12.14c.16.31.32.38.43.49-.63-.35.57 1.13.7 1.32l.1-.17c-.02.24.17.56.53 1.01l.3-.01c.13.24.58.68.85.7l-.18.24c.69.2.33.29 1.18.59l-.17-.3c.43.37.56.7 1.17.98.85.3.96.18 1.82.43-.73 0-1.59 0-2.17-.22-3.96-1.07-7.56-5.72-7.32-10.5-.06-.97.1-2.18-.06-2.42.22-.74.48-1.64 1.01-2.71-.04-.07.09.21.36-.24.16-.36.29-.75.5-1.1l.1-.03c.11-.61 1.43-1.55 1.85-2.02v.18c.86-.81 2.4-1.35 3.26-1.73-.23.25.51-.03 1.04-.06l-.49.28c.63-.16.6.07 1.25-.03-.23.03-.5.1-.46.16.72.08.84-.22 1.51 0l-.05-.2c.94.34 1.13.28 2.14.82.36.01.4-.22.93 0 .1.16-.02.19.64.59.07-.03-.13-.22-.27-.37 1.3.71 2.75 2.22 3.18 3.84-.41-.74-.04.39-.18.33.18.49.33 1 .43 1.53-.12-.43-.39-1.48-.86-2.15-.03.43-.6-.3-.29.66.22.34.05-.35.34.25 0 .29.11.58.18.95-.1-.02-.22-.41-.3-.31.1.5.27.72.33.76-.03.08-.12-.08-.12.24.04.74.21.43.29.46-.09.37-.41.79-.25 1.42l-.2-.56c-.05.53.11.63-.13 1.28.18-.6.16-1.1-.01-.85.09.82-.65 1.45-.58 1.98l-.21-.29c-.57.83-.01.45-.4 1.06.14-.23-.07-.08.11-.36-.12.01-.55.53-.94.83-1.54 1.23-3.39 1.4-5.15.73h-.01c.01-.04 0-.09-.12-.17-1.51-1.15-2.4-2.13-2.11-4.41.25-.17.31-1.12.84-1.45.32-.71 1.28-1.36 2.31-1.38 1.05-.06 1.94.56 2.39 1.14-.82-.75-2.14-.98-3.28-.43-1.15.53-1.84 1.8-1.76 3.07.06-.07.1-.02.12-.18-.03 2.47 2.66 4.28 4.6 3.37l.03.05c.78-.22.68-.39 1.19-.75-.04.09-.34.3-.16.3.25-.06 1.03-.79 1.42-1.13.17-.38-.1-.23.15-.69l.3-.15c.17-.48.35-.75.35-1.32"/></svg>

<?xml version="1.0" encoding="UTF-8"?><!DOCTYPE svg PUBLIC "-//W3C//DTD SVG 1.1//EN" "http://www.w3.org/Graphics/SVG/1.1/DTD/svg11.dtd"><svg xmlns="http://www.w3.org/2000/svg" xmlns:xlink="http://www.w3.org/1999/xlink" version="1.1" id="mdi-debian" width="24" height="24" viewBox="0 0 24 24"><path d="M18.5,10.57L18.3,10.94C18.56,10.16 18.41,9.31 18.45,8.57L18.38,8.55C18.31,6.7 16.71,4.73 15.29,4.07C14.06,3.5 12.17,3.4 11.3,3.83C11.42,3.72 11.9,3.68 11.75,3.6C10.38,3.73 10.69,4.07 9.64,4.34C9.35,4.62 10.5,4.12 9.87,4.5C9.31,4.63 9.05,4.38 8.22,5.24C8.29,5.36 8.75,4.89 8.37,5.36C7.58,5.27 5.89,7.16 5.53,7.78L5.72,7.82C5.41,8.59 5,9.08 4.95,9.54C4.87,10.68 4.5,12.75 5.03,13.39L4.97,13.92L5.2,14.37L5.08,14.38C5.66,16.21 5.7,14.42 6.47,16.32C6.36,16.28 6.24,16.24 6.08,16C6.06,16.19 6.32,16.69 6.62,17.08L6.5,17.22C6.66,17.53 6.82,17.6 6.93,17.71C6.3,17.36 7.5,18.84 7.63,19.03L7.73,18.86C7.71,19.1 7.9,19.42 8.26,19.87L8.56,19.86C8.69,20.1 9.14,20.54 9.41,20.56L9.23,20.8C9.92,21 9.56,21.09 10.41,21.39L10.24,21.09C10.67,21.46 10.8,21.79 11.41,22.07C12.26,22.37 12.37,22.25 13.23,22.5C12.5,22.5 11.64,22.5 11.06,22.28C7.1,21.21 3.5,16.56 3.74,11.78C3.68,10.81 3.84,9.6 3.68,9.36C3.9,8.62 4.16,7.72 4.69,6.65C4.65,6.58 4.78,6.86 5.05,6.41C5.21,6.05 5.34,5.66 5.55,5.31L5.65,5.28C5.76,4.67 7.08,3.73 7.5,3.26V3.44C8.36,2.63 9.9,2.09 10.76,1.71C10.53,1.96 11.27,1.68 11.8,1.65L11.31,1.93C11.94,1.77 11.91,2 12.56,1.9C12.33,1.93 12.06,2 12.1,2.06C12.82,2.14 12.94,1.84 13.61,2.06L13.56,1.86C14.5,2.2 14.69,2.14 15.7,2.68C16.06,2.69 16.1,2.46 16.63,2.68C16.73,2.84 16.61,2.87 17.27,3.27C17.34,3.24 17.14,3.05 17,2.9C18.3,3.61 19.75,5.12 20.18,6.74C19.77,6 20.14,7.13 20,7.07C20.18,7.56 20.33,8.07 20.43,8.6C20.31,8.17 20.04,7.12 19.57,6.45C19.54,6.88 18.97,6.15 19.28,7.11C19.5,7.45 19.33,6.76 19.62,7.36C19.62,7.65 19.73,7.94 19.8,8.31C19.7,8.29 19.58,7.9 19.5,8C19.6,8.5 19.77,8.72 19.83,8.76C19.8,8.84 19.71,8.68 19.71,9C19.75,9.74 19.92,9.43 20,9.46C19.91,9.83 19.59,10.25 19.75,10.88L19.55,10.32C19.5,10.85 19.66,10.95 19.42,11.6C19.6,11 19.58,10.5 19.41,10.75C19.5,11.57 18.76,12.2 18.83,12.73L18.62,12.44C18.05,13.27 18.61,12.89 18.22,13.5C18.36,13.27 18.15,13.42 18.33,13.14C18.21,13.15 17.78,13.67 17.39,13.97C15.85,15.2 14,15.37 12.24,14.7H12.23C12.24,14.66 12.23,14.61 12.11,14.53C10.6,13.38 9.71,12.4 10,10.12C10.25,9.95 10.31,9 10.84,8.67C11.16,7.96 12.12,7.31 13.15,7.29C14.2,7.23 15.09,7.85 15.54,8.43C14.72,7.68 13.4,7.45 12.26,8C11.11,8.53 10.42,9.8 10.5,11.07C10.56,11 10.6,11.05 10.62,10.89C10.59,13.36 13.28,15.17 15.22,14.26L15.25,14.31C16.03,14.09 15.93,13.92 16.44,13.56C16.4,13.65 16.1,13.86 16.28,13.86C16.53,13.8 17.31,13.07 17.7,12.73C17.87,12.35 17.6,12.5 17.85,12.04L18.15,11.89C18.32,11.41 18.5,11.14 18.5,10.57" /></svg>
